assets/icons/ic-think.svg

<svg width="25" height="25" viewBox="0 0 25 25" fill="none" xmlns="http://www.w3.org/2000/svg">
<path d="M18.0069 3.32233C17.0872 2.56591 16.0103 2.02436 14.8546 1.73717C13.6989 1.44999 12.4937 1.42442 11.3269 1.66233C9.77331 1.97615 8.34792 2.7444 7.23162 3.86961C6.11531 4.99481 5.35841 6.42626 5.05693 7.98233C4.83678 9.14905 4.87679 10.35 5.1741 11.4995C5.47141 12.6489 6.0187 13.7187 6.77693 14.6323C7.48062 15.4264 7.88397 16.4418 7.91693 17.5023V20.5023C7.91693 21.298 8.233 22.061 8.79561 22.6236C9.35822 23.1863 10.1213 23.5023 10.9169 23.5023H14.9169C15.7126 23.5023 16.4756 23.1863 17.0383 22.6236C17.6009 22.061 17.9169 21.298 17.9169 20.5023V17.6923C17.9505 16.5215 18.3806 15.3968 19.1369 14.5023C20.4621 12.8631 21.0867 10.7671 20.8751 8.66995C20.6635 6.57276 19.6328 4.64381 18.0069 3.30233V3.32233ZM15.9169 20.5023C15.9169 20.7675 15.8116 21.0219 15.624 21.2094C15.4365 21.397 15.1822 21.5023 14.9169 21.5023H10.9169C10.6517 21.5023 10.3974 21.397 10.2098 21.2094C10.0223 21.0219 9.91693 20.7675 9.91693 20.5023V19.5023H15.9169V20.5023ZM17.5869 13.2623C16.5814 14.4549 15.9948 15.9444 15.9169 17.5023H13.9169V14.5023C13.9169 14.2371 13.8116 13.9828 13.624 13.7952C13.4365 13.6077 13.1822 13.5023 12.9169 13.5023C12.6517 13.5023 12.3974 13.6077 12.2098 13.7952C12.0223 13.9828 11.9169 14.2371 11.9169 14.5023V17.5023H9.91693C9.89055 15.9704 9.32388 14.4971 8.31693 13.3423C7.65258 12.5463 7.20583 11.5917 7.02024 10.5717C6.83466 9.5516 6.91658 8.50084 7.25802 7.52186C7.59946 6.54287 8.18876 5.66907 8.96846 4.98565C9.74816 4.30224 10.6916 3.83253 11.7069 3.62233C12.5795 3.44267 13.4811 3.45957 14.3463 3.6718C15.2115 3.88402 16.0186 4.28625 16.709 4.84928C17.3994 5.41231 17.9557 6.122 18.3376 6.92685C18.7195 7.73169 18.9174 8.61147 18.9169 9.50233C18.9243 10.8722 18.454 12.2018 17.5869 13.2623V13.2623Z" fill="#37352F"/>
</svg>

<svg xmlns="http://www.w3.org/2000/svg" width="25" height="25" fill="none" xmlns:v="https://vecta.io/nano"><path d="M18.007 3.322a8 8 0 0 0-6.68-1.66 8 8 0 0 0-6.27 6.32 8.07 8.07 0 0 0 1.72 6.65 4.54 4.54 0 0 1 1.14 2.87v3a3 3 0 0 0 3 3h4a3 3 0 0 0 3-3v-2.81a5.17 5.17 0 0 1 1.22-3.19 8 8 0 0 0-1.13-11.2v.02zm-2.09 17.18a1 1 0 0 1-1 1h-4a1 1 0 0 1-1-1v-1h6v1zm1.67-7.24a7.13 7.13 0 0 0-1.67 4.24h-2v-3a1 1 0 0 0-1-1 1 1 0 0 0-1 1v3h-2a6.5 6.5 0 0 0-1.6-4.16 6 6 0 0 1-1.059-5.82 6 6 0 0 1 4.449-3.9 6 6 0 0 1 5.002 1.227 6 6 0 0 1 2.208 4.653 5.89 5.89 0 0 1-1.33 3.76h0z" fill="#37352f"/></svg>
